svg/u26fd.svg

<svg viewBox="0 0 128 128" xmlns="http://www.w3.org/2000/svg">
  <defs/>
  <path d="M82.405,61.413 Q85.885,68.813 100.107,84.204 Q100.12,84.218 100.133,84.232 Q101.551,79.238 102.211,75.514 Q103.713,67.034 102.204,60.384 L101.127,55.715 L106.973,54.365 L108.056,59.056 Q109.833,66.888 108.119,76.561 Q107.178,81.874 104.834,89.477 Q114.111,100.204 115.042,104.873 Q116.323,111.279 112.517,115.882 Q108.514,120.722 102.376,119.612 Q95.683,118.405 94.346,110.453 Q93.344,104.487 95.774,97.663 Q97.047,94.084 98.09,90.893 Q96.953,89.632 95.701,88.276 Q80.85,72.205 76.975,63.967 Z M102.659,96.144 Q102.071,97.864 101.426,99.677 Q99.519,105.03 100.264,109.459 Q100.901,113.249 103.444,113.708 Q106.127,114.193 107.893,112.058 Q109.88,109.656 109.158,106.047 Q108.607,103.284 102.659,96.144 Z" fill="#616161"/>
  <path d="M80.82,56.1 C78.95,56.1 79.68,54.49 79.68,52.5 L79.68,25.92 C79.68,23.93 78.95,22.32 80.82,22.32 C82.69,22.32 85.94,23.43 85.94,25.92 C85.94,28.41 85.94,50.51 85.94,52.5 C85.94,54.49 82.69,56.1 80.82,56.1 Z" fill="#82AEC0"/>
  <path d="M82.1,113.93 L82.1,27.96 C82.1,14.73 71.37,4 58.14,4 L34.96,4 C21.72,4 11,14.73 11,27.96 L11,113.93 C7.7,114.9 5.29,117.95 5.29,121.56 L5.29,121.86 C5.29,123.04 6.25,124 7.43,124 L14.45,124 L78.65,124 L85.67,124 C86.85,124 87.81,123.04 87.81,121.86 L87.81,121.56 C87.81,117.94 85.4,114.9 82.1,113.93 Z" fill="#F44336"/>
  <path d="M65.68,56.57 L26.93,56.57 C25.16,56.57 23.72,55.13 23.72,53.36 L23.72,22.42 C23.72,20.65 25.16,19.21 26.93,19.21 L65.68,19.21 C67.45,19.21 68.89,20.65 68.89,22.42 L68.89,53.35 C68.89,55.13 67.46,56.57 65.68,56.57 Z" fill="#FFFFFF"/>
  <path d="M32.22,29.6 L61.53,29.6 L61.53,37.24 L32.22,37.24 L32.22,29.6 Z" fill="#9E9E9E"/>
  <path d="M32.22,41.36 L61.53,41.36 L61.53,49 L32.22,49 L32.22,41.36 Z" fill="#9E9E9E"/>
  <path d="M24.13,47 C24.08,47.52 23.32,47.52 23.27,47.01 C22.53,39.74 22.11,32.46 21.79,25.19 C21.32,21.17 24.42,17.7 28.57,17.98 C40.36,17.63 52.21,17.63 64,17.97 C68.14,17.69 71.27,21.16 70.79,25.18 C70.47,32.46 70.04,39.75 69.3,47.03 C69.25,47.55 68.49,47.55 68.44,47.03 C67.67,39.5 67.25,31.96 66.91,24.44 C66.9,24.28 66.86,24.13 66.82,23.99 C66.57,23.09 65.7,22.34 64.8,22.43 C64.32,22.45 28.22,22.44 27.76,22.42 C26.86,22.33 25.99,23.08 25.74,23.99 C25.7,24.14 25.67,24.29 25.65,24.44 C25.31,31.95 24.9,39.48 24.13,47 Z" fill="#82AEC0"/>
  <path d="M63.1,84.08 A16.79 17.89 0 1 1 29.52,84.08 A16.79 17.89 0 1 1 63.1,84.08 Z" fill="#F5F5F5"/>
  <path d="M38.87,86.6 C38.87,82.23 46.3,73.65 46.3,73.65 C46.3,73.65 53.73,82.23 53.73,86.6 C53.73,90.97 50.4,94.52 46.3,94.52 C42.2,94.52 38.87,90.97 38.87,86.6 Z" fill="#212121"/>
  <path d="M11,110.03 L82.1,110.03 L82.1,113.92 L11,113.92 L11,110.03 Z" fill="#C62828"/>
  <path d="M14.988,21.603 Q15.906,16.432 19.789,12.803 Q24.459,8.44 31.58,8.44 Q32.616,8.44 33.348,9.172 Q34.08,9.904 34.08,10.94 Q34.08,11.976 33.348,12.708 Q32.616,13.44 31.58,13.44 Q26.431,13.44 23.203,16.457 Q20.538,18.947 19.912,22.477 Q19.731,23.496 18.882,24.089 Q18.033,24.682 17.013,24.502 Q15.994,24.321 15.401,23.472 Q14.808,22.623 14.988,21.603 Z" fill="#FF7555"/>
  <path d="M108.059,58.98 L102.263,60.452 L101.308,56.692 L107.104,55.22 L108.059,58.98 Z" fill="#9E9E9E"/>
  <path d="M104.77,29.85 L111.5,17.65 C112,16.75 112.66,15.95 113.45,15.3 C115.91,13.28 121.42,8.72 122.58,7.46 C124.09,5.82 121.29,2.36 119.3,3.73 C117.74,4.81 112,9.85 109.61,11.96 C108.91,12.57 108.33,13.3 107.88,14.12 L100.81,26.94 L104.77,29.85 Z" fill="#9E9E9E"/>
  <path d="M100.66,37.73 L110.08,35.78 L113.4,47.6 C113.93,49.68 112.97,50.28 111.13,50.75 L104.47,52.6 M99.25,37.33 L107.3,55.68 L114.92,53.55 C118.11,52.62 118.02,50.02 117.53,48.09 L113.6,33.69 L99.25,37.33 L99.25,37.33 Z" fill="#757575"/>
  <path d="M103.82,21.12 L108.69,23.86 C109.34,24.22 109.58,25.03 109.25,25.69 L108.28,27.63 L110.53,29.33 C112.1,30.51 113.21,32.19 113.69,34.1 L113.96,35.15 L107,36.94 C105.54,37.33 104.67,38.82 105.05,40.28 L108.26,52.91 C108.58,54.27 108.66,55.39 107.29,55.69 L101.74,57.07 C100.42,57.36 99.11,56.55 98.78,55.24 L94.9,39.95 C93.16,33.1 95.84,30.78 96.4,29.65 C96.96,28.52 99.9,25.44 99.9,25.44 L101.91,21.68 C102.28,20.99 103.14,20.74 103.82,21.12 Z" fill="#F44336"/>
  <path d="M105.904,31.128 L101.074,28.708 Q99.286,27.812 100.182,26.024 Q100.63,25.13 101.301,24.907 Q101.972,24.684 102.866,25.132 L107.696,27.552 Q109.484,28.448 108.588,30.236 Q108.14,31.13 107.469,31.353 Q106.798,31.576 105.904,31.128 Z" fill="#FF7555"/>
</svg>

<svg viewBox="0 0 128 128" xmlns="http://www.w3.org/2000/svg">
  <g>
    <path d="M79.69,62.69c7.36,15.65,30.45,32.94,32.41,42.77 c1.34,6.7-3.33,12.26-9.19,11.2c-6.6-1.19-6.91-10.69-4.31-17.99c6.54-18.38,8.79-28.99,6.53-38.95l-1.08-4.68" fill="none" stroke="#616161" stroke-width="6" stroke-miterlimit="10"/>
    <g>
      <path d="M80.82,56.1c-1.87,0-1.14-1.61-1.14-3.6V25.92c0-1.99-0.73-3.6,1.14-3.6s5.12,1.11,5.12,3.6 s0,24.59,0,26.58S82.69,56.1,80.82,56.1z" fill="#82AEC0"/>
      <path d="M82.1,113.93V27.96C82.1,14.73,71.37,4,58.14,4H34.96C21.72,4,11,14.73,11,27.96v85.97 c-3.3,0.97-5.71,4.02-5.71,7.63v0.3c0,1.18,0.96,2.14,2.14,2.14h7.02h64.2h7.02c1.18,0,2.14-0.96,2.14-2.14v-0.3 C87.81,117.94,85.4,114.9,82.1,113.93z" fill="#F44336"/>
      <path d="M65.68,56.57H26.93c-1.77,0-3.21-1.44-3.21-3.21V22.42c0-1.77,1.44-3.21,3.21-3.21h38.75 c1.77,0,3.21,1.44,3.21,3.21v30.93C68.89,55.13,67.46,56.57,65.68,56.57z" fill="#FFFFFF"/>
      <rect height="7.64" fill="#9E9E9E" width="29.31" x="32.22" y="29.6"/>
      <rect height="7.64" fill="#9E9E9E" width="29.31" x="32.22" y="41.36"/>
      <path d="M24.13,47c-0.05,0.52-0.81,0.52-0.86,0.01c-0.74-7.27-1.16-14.55-1.48-21.82 c-0.47-4.02,2.63-7.49,6.78-7.21c11.79-0.35,23.64-0.35,35.43-0.01c4.14-0.28,7.27,3.19,6.79,7.21 c-0.32,7.28-0.75,14.57-1.49,21.85c-0.05,0.52-0.81,0.52-0.86,0c-0.77-7.53-1.19-15.07-1.53-22.59c-0.01-0.16-0.05-0.31-0.09-0.45 c-0.25-0.9-1.12-1.65-2.02-1.56c-0.48,0.02-36.58,0.01-37.04-0.01c-0.9-0.09-1.77,0.66-2.02,1.57c-0.04,0.15-0.07,0.3-0.09,0.45 C25.31,31.95,24.9,39.48,24.13,47z" fill="#82AEC0"/>
      <ellipse cx="46.31" cy="84.08" rx="16.79" ry="17.89" fill="#F5F5F5"/>
      <path d="M38.87,86.6c0-4.37,7.43-12.95,7.43-12.95s7.43,8.58,7.43,12.95s-3.33,7.92-7.43,7.92 S38.87,90.97,38.87,86.6z" fill="#212121"/>
      <rect height="3.89" fill="#C62828" width="71.1" x="11" y="110.03"/>
      <path d="M17.45,22.04 c0.88-4.96,5.2-11.1,14.13-11.1" fill="none" stroke="#FF7555" stroke-width="5" stroke-linecap="round" stroke-miterlimit="10"/>
    </g>
    <g>
      <rect height="3.88" fill="#9E9E9E" transform="matrix(-0.9692 0.2462 -0.2462 -0.9692 220.382 88.132)" width="5.98" x="101.69" y="55.91"/>
      <path d="M104.77,29.85l6.73-12.2c0.5-0.9,1.16-1.7,1.95-2.35c2.46-2.02,7.97-6.58,9.13-7.84 c1.51-1.64-1.29-5.1-3.28-3.73c-1.56,1.08-7.3,6.12-9.69,8.23c-0.7,0.61-1.28,1.34-1.73,2.16l-7.07,12.82L104.77,29.85z" fill="#9E9E9E"/>
      <path d="M100.66,37.73l9.42-1.95l3.32,11.82c0.53,2.08-0.43,2.68-2.27,3.15l-6.66,1.85 M99.25,37.33 l8.05,18.35l7.62-2.13c3.19-0.93,3.1-3.53,2.61-5.46l-3.93-14.4L99.25,37.33L99.25,37.33z" fill="#757575"/>
      <path d="M103.82,21.12l4.87,2.74c0.65,0.36,0.89,1.17,0.56,1.83l-0.97,1.94l2.25,1.7 c1.57,1.18,2.68,2.86,3.16,4.77l0.27,1.05L107,36.94c-1.46,0.39-2.33,1.88-1.95,3.34l3.21,12.63c0.32,1.36,0.4,2.48-0.97,2.78 l-5.55,1.38c-1.32,0.29-2.63-0.52-2.96-1.83L94.9,39.95c-1.74-6.85,0.94-9.17,1.5-10.3s3.5-4.21,3.5-4.21l2.01-3.76 C102.28,20.99,103.14,20.74,103.82,21.12z" fill="#F44336"/>
      <line fill="none" stroke="#FF7555" stroke-width="4" stroke-linecap="round" stroke-miterlimit="10" x1="106.8" x2="101.97" y1="29.34" y2="26.92"/>
    </g>
  </g>
</svg>
